icons/Wallet.svg

<svg width="24" height="24" viewBox="0 0 24 24" fill="none" xmlns="http://www.w3.org/2000/svg">
<path fill-rule="evenodd" clip-rule="evenodd" d="M2.25,6c0,-1.51878 1.23122,-2.75 2.75,-2.75h11.5c1.2426,0 2.25,1.00736 2.25,2.25v1.76373c1.125,0.12436 2,1.07813 2,2.23627v2.5v4v2.5c0,1.2426 -1.0074,2.25 -2.25,2.25h-14c-1.24264,0 -2.25,-1.0074 -2.25,-2.25zM3.75,8.45015v10.04985c0,0.4142 0.33579,0.75 0.75,0.75h14c0.4142,0 0.75,-0.3358 0.75,-0.75v-1.75h-3.25c-1.5188,0 -2.75,-1.2312 -2.75,-2.75c0,-1.5188 1.2312,-2.75 2.75,-2.75h3.25v-1.75c0,-0.41421 -0.3358,-0.75 -0.75,-0.75h-0.5h-13c-0.45011,0 -0.87497,-0.10814 -1.25,-0.29985zM5,7.25h12.25v-1.75c0,-0.41421 -0.3358,-0.75 -0.75,-0.75h-11.5c-0.69036,0 -1.25,0.55964 -1.25,1.25c0,0.69036 0.55964,1.25 1.25,1.25zM16,12.75c-0.6904,0 -1.25,0.5596 -1.25,1.25c0,0.6904 0.5596,1.25 1.25,1.25h3.25v-2.5z" fill="#002B51"/>
</svg>

<svg width="24" height="24" viewBox="0 0 24 24" fill="none" xmlns="http://www.w3.org/2000/svg">
<path fill-rule="evenodd" clip-rule="evenodd" d="M2.25 6C2.25 4.48122 3.48122 3.25 5 3.25H16.5C17.7426 3.25 18.75 4.25736 18.75 5.5V7.26373C19.875 7.38809 20.75 8.34186 20.75 9.5V12V16V18.5C20.75 19.7426 19.7426 20.75 18.5 20.75H4.5C3.25736 20.75 2.25 19.7426 2.25 18.5V6ZM3.75 8.45015V18.5C3.75 18.9142 4.08579 19.25 4.5 19.25H18.5C18.9142 19.25 19.25 18.9142 19.25 18.5V16.75H16C14.4812 16.75 13.25 15.5188 13.25 14C13.25 12.4812 14.4812 11.25 16 11.25H19.25V9.5C19.25 9.08579 18.9142 8.75 18.5 8.75H18H5C4.54989 8.75 4.12503 8.64186 3.75 8.45015ZM3.75 6C3.75 5.30964 4.30964 4.75 5 4.75H16.5C16.9142 4.75 17.25 5.08579 17.25 5.5V7.25H5C4.30964 7.25 3.75 6.69036 3.75 6ZM16 12.75C15.3096 12.75 14.75 13.3096 14.75 14C14.75 14.6904 15.3096 15.25 16 15.25H19.25V12.75H16Z" fill="#002B51"/>
</svg>
